src/assets/svgs/discord.svg

<svg width="24" height="19" viewBox="0 0 24 19" fill="none" xmlns="http://www.w3.org/2000/svg">
<path d="M20.317 2.12339C18.761 1.40915 17.119 0.899835 15.4319 0.608191C15.4166 0.605332 15.4007 0.607378 15.3867 0.614039C15.3726 0.6207 15.3609 0.631636 15.3534 0.645291C15.1424 1.02059 14.9087 1.51009 14.7451 1.89479C12.9004 1.61859 11.0651 1.61859 9.2583 1.89479C9.0947 1.50149 8.8525 1.02059 8.6406 0.645291C8.63276 0.631947 8.62107 0.621279 8.60706 0.614678C8.59306 0.608078 8.57739 0.605852 8.5621 0.608291C6.87488 0.899257 5.2327 1.40853 3.6769 2.12329C3.66359 2.12898 3.65238 2.13866 3.6448 2.15099C0.533404 6.79939 -0.318996 11.3335 0.099204 15.8114C0.100386 15.8224 0.103757 15.833 0.109116 15.8426C0.114476 15.8522 0.121714 15.8607 0.130404 15.8675C2.1832 17.3751 4.1717 18.2903 6.1233 18.8969C6.13848 18.9014 6.15468 18.9012 6.16972 18.8963C6.18477 18.8913 6.19795 18.8819 6.2075 18.8693C6.6691 18.2389 7.0806 17.5741 7.4335 16.8751C7.43835 16.8655 7.44112 16.855 7.44163 16.8443C7.44213 16.8336 7.44036 16.8229 7.43643 16.8129C7.4325 16.8029 7.4265 16.7939 7.41883 16.7864C7.41115 16.7789 7.40198 16.7731 7.3919 16.7694C6.7391 16.5218 6.1176 16.2199 5.5197 15.8771C5.5088 15.8707 5.49964 15.8617 5.49304 15.8509C5.48643 15.8401 5.48258 15.8279 5.48183 15.8153C5.48108 15.8026 5.48345 15.79 5.48873 15.7785C5.49401 15.7671 5.50204 15.757 5.5121 15.7494C5.6379 15.6551 5.7638 15.5571 5.8839 15.458C5.89458 15.4492 5.9075 15.4435 5.92121 15.4417C5.93492 15.4398 5.94887 15.4418 5.9615 15.4475C9.8893 17.2408 14.1415 17.2408 18.0229 15.4475C18.0355 15.4415 18.0496 15.4392 18.0635 15.4409C18.0774 15.4425 18.0906 15.4481 18.1014 15.457C18.2216 15.556 18.3474 15.6551 18.4742 15.7494C18.4843 15.757 18.4924 15.7669 18.4977 15.7783C18.5031 15.7898 18.5055 15.8023 18.5049 15.8149C18.5042 15.8276 18.5005 15.8398 18.494 15.8506C18.4875 15.8614 18.4784 15.8705 18.4676 15.877C17.8695 16.2263 17.2429 16.5245 16.5946 16.7684C16.5845 16.7722 16.5754 16.7782 16.5678 16.7858C16.5602 16.7934 16.5542 16.8026 16.5504 16.8126C16.5466 16.8227 16.5449 16.8335 16.5455 16.8442C16.5461 16.855 16.549 16.8655 16.5539 16.8751C16.9143 17.5731 17.3258 18.2379 17.7789 18.8683C17.7882 18.8813 17.8013 18.8911 17.8164 18.8962C17.8315 18.9013 17.8478 18.9016 17.8631 18.8969C19.8241 18.2902 21.8126 17.375 23.8654 15.8675C23.8742 15.861 23.8816 15.8528 23.887 15.8433C23.8924 15.8337 23.8957 15.8232 23.8967 15.8123C24.3971 10.6353 23.0585 6.13839 20.3482 2.15189C20.3416 2.13894 20.3305 2.12879 20.317 2.12329V2.12339ZM8.02 13.0848C6.8375 13.0848 5.8631 11.9991 5.8631 10.6658C5.8631 9.33259 6.8186 8.24689 8.0201 8.24689C9.2309 8.24689 10.1958 9.34209 10.1769 10.6659C10.1769 11.9991 9.2214 13.0848 8.02 13.0848ZM15.9948 13.0848C14.8123 13.0848 13.8379 11.9991 13.8379 10.6658C13.8379 9.33259 14.7933 8.24689 15.9948 8.24689C17.2056 8.24689 18.1705 9.34209 18.1516 10.6659C18.1516 11.9991 17.2056 13.0848 15.9948 13.0848Z" fill="white"/>
</svg>

<svg width="24" height="19" fill="none" xmlns="http://www.w3.org/2000/svg"><path d="M20.317 2.123A19.79 19.79 0 0 0 15.432.608a.074.074 0 0 0-.079.037c-.21.376-.444.865-.608 1.25a18.27 18.27 0 0 0-5.487 0 12.64 12.64 0 0 0-.617-1.25.077.077 0 0 0-.079-.037c-1.687.291-3.33.8-4.885 1.515a.07.07 0 0 0-.032.028C.533 6.799-.32 11.334.099 15.811a.082.082 0 0 0 .031.056 19.9 19.9 0 0 0 5.993 3.03.078.078 0 0 0 .084-.028c.462-.63.874-1.295 1.227-1.994a.076.076 0 0 0-.042-.106 13.107 13.107 0 0 1-1.872-.892.077.077 0 0 1-.008-.128 10.2 10.2 0 0 0 .372-.291.074.074 0 0 1 .077-.01c3.928 1.793 8.18 1.793 12.062 0a.074.074 0 0 1 .078.009c.12.099.246.198.373.292a.077.077 0 0 1-.006.128c-.599.35-1.225.647-1.873.891a.076.076 0 0 0-.045.045.078.078 0 0 0 .004.062c.36.698.772 1.363 1.225 1.993a.076.076 0 0 0 .084.029 19.839 19.839 0 0 0 6.002-3.03.078.078 0 0 0 .032-.055c.5-5.177-.838-9.674-3.549-13.66a.06.06 0 0 0-.031-.029zM8.02 13.085c-1.182 0-2.157-1.086-2.157-2.42 0-1.332.956-2.418 2.157-2.418 1.21 0 2.176 1.095 2.157 2.419 0 1.333-.956 2.419-2.157 2.419zm7.975 0c-1.183 0-2.157-1.086-2.157-2.42 0-1.332.955-2.418 2.157-2.418 1.21 0 2.176 1.095 2.157 2.419 0 1.333-.946 2.419-2.157 2.419z" fill="#fff"/></svg>
